public/assets/routes_avatar/inputTaxDetails.svg

<?xml version="1.0" encoding="UTF-8"?>
<svg width="60px" height="60px" viewBox="0 0 60 60" version="1.1" xmlns="http://www.w3.org/2000/svg" xmlns:xlink="http://www.w3.org/1999/xlink">
    <!-- Generator: Sketch 49.3 (51167) - http://www.bohemiancoding.com/sketch -->
    <title>进项管理-进项税额明细台账</title>
    <desc>Created with Sketch.</desc>
    <defs>
        <rect id="path-1" x="0" y="0" width="25" height="27" rx="2"></rect>
        <path d="M26.078,23.3376 L23.7643,25.4141 C23.6409,25.5235 23.4776,25.5901 23.2995,25.5901 C22.9151,25.5901 22.6038,25.2809 22.6038,24.8987 C22.6038,24.6925 22.6938,24.51 22.8356,24.3834 L23.8051,23.5138 L20.6936,23.5138 C20.3104,23.5138 20,23.2046 20,22.8202 C20,22.438 20.3104,22.1288 20.6936,22.1288 L23.8051,22.1288 L22.8356,21.2591 C22.6938,21.1324 22.6038,20.9488 22.6038,20.7439 C22.6038,20.3616 22.9151,20.0524 23.2995,20.0524 C23.4776,20.0524 23.6409,20.119 23.7643,20.2306 L26.078,22.307 C26.2197,22.4336 26.3098,22.6183 26.3098,22.8223 C26.3098,23.0262 26.2198,23.211 26.078,23.3376 Z" id="path-2"></path>
    </defs>
    <g id="icon" stroke="none" stroke-width="1" fill="none" fill-rule="evenodd">
        <g id="进项管理-进项税额明细台账">
            <circle id="Oval-Copy" fill="#05DCAC" cx="30" cy="30" r="30"></circle>
            <g id="Group-33" transform="translate(15.000000, 15.000000)">
                <g id="Rectangle-4">
                    <use fill="#05DCAC" fill-rule="evenodd" xlink:href="#path-1"></use>
                    <rect stroke="#FFFFFF" stroke-width="1.5" x="0.75" y="0.75" width="23.5" height="25.5" rx="2"></rect>
                </g>
                <rect id="Rectangle-3" fill="#FFFFFF" x="5" y="5" width="15" height="1.5" rx="0.75"></rect>
                <rect id="Rectangle-3-Copy" fill="#FFFFFF" x="5" y="10" width="15" height="1.5" rx="0.75"></rect>
                <rect id="Rectangle-3-Copy-2" fill="#FFFFFF" x="5" y="15" width="10" height="1.5" rx="0.75"></rect>
                <circle id="Oval-2" fill="#05DCAC" cx="22.5" cy="22.5" r="7.5"></circle>
                <path d="M22.6923077,29.3846154 C18.9962482,29.3846154 16,26.3883672 16,22.6923077 C16,18.9962482 18.9962482,16 22.6923077,16 C26.3883672,16 29.3846154,18.9962482 29.3846154,22.6923077 C29.3846154,26.3883672 26.3883672,29.3846154 22.6923077,29.3846154 Z M22.6923077,28 C25.6236652,28 28,25.6236652 28,22.6923077 C28,19.7609502 25.6236652,17.3846154 22.6923077,17.3846154 C19.7609502,17.3846154 17.3846154,19.7609502 17.3846154,22.6923077 C17.3846154,25.6236652 19.7609502,28 22.6923077,28 Z" id="Oval-3" fill="#FFFFFF" fill-rule="nonzero"></path>
                <g id="Shape" fill-rule="nonzero">
                    <use fill="#FFFFFF" fill-rule="evenodd" xlink:href="#path-2"></use>
                    <path stroke="#05DCAC" stroke-width="0.2" d="M26.0112072,23.2631774 L26.0114005,23.2630044 C26.1364999,23.1513148 26.2098,22.9918449 26.2098,22.8223 C26.2098,22.6527704 26.136493,22.4933579 26.011209,22.3814242 L23.6972244,20.3047678 C23.5892331,20.2071031 23.4488777,20.1524 23.2995,20.1524 C22.9701118,20.1524 22.7038,20.4170457 22.7038,20.7439 C22.7038,20.9140061 22.7767454,21.0724097 22.9023755,21.1846619 L23.8718755,22.0543619 L23.8051,22.2288 L20.6936,22.2288 C20.365478,22.2288 20.1,22.493379 20.1,22.8202 C20.1,23.1489302 20.3651867,23.4138 20.6936,23.4138 L23.8051,23.4138 L23.8718712,23.5882419 L22.9021995,24.4579956 C22.7763945,24.5703152 22.7038,24.7277311 22.7038,24.8987 C22.7038,25.2254675 22.9701251,25.4901 23.2995,25.4901 C23.4483748,25.4901 23.5891748,25.4357168 23.6975072,25.3396774 L26.0112072,23.2631774 Z"></path>
                </g>
            </g>
        </g>
    </g>
</svg>

<svg width="60" height="60" xmlns="http://www.w3.org/2000/svg" xmlns:xlink="http://www.w3.org/1999/xlink"><defs><rect id="a" x="0" y="0" width="25" height="27" rx="2"/><path d="M26.078 23.338l-2.314 2.076a.7.7 0 0 1-.465.176.693.693 0 0 1-.695-.691c0-.207.09-.389.232-.516l.97-.87h-3.112a.693.693 0 1 1 0-1.384h3.111l-.97-.87a.69.69 0 0 1 .464-1.207.69.69 0 0 1 .465.179l2.314 2.076a.691.691 0 0 1 0 1.03z" id="b"/></defs><g fill="none" fill-rule="evenodd"><circle fill="#05DCAC" cx="30" cy="30" r="30"/><g transform="translate(15 15)"><use fill="#05DCAC" xlink:href="#a"/><rect stroke="#FFF" stroke-width="1.5" x=".75" y=".75" width="23.5" height="25.5" rx="2"/><rect fill="#FFF" x="5" y="5" width="15" height="1.5" rx=".75"/><rect fill="#FFF" x="5" y="10" width="15" height="1.5" rx=".75"/><rect fill="#FFF" x="5" y="15" width="10" height="1.5" rx=".75"/><circle fill="#05DCAC" cx="22.5" cy="22.5" r="7.5"/><path d="M22.692 29.385a6.692 6.692 0 1 1 0-13.385 6.692 6.692 0 0 1 0 13.385zm0-1.385a5.308 5.308 0 1 0 0-10.615 5.308 5.308 0 0 0 0 10.615z" fill="#FFF" fill-rule="nonzero"/><g fill-rule="nonzero"><use fill="#FFF" fill-rule="evenodd" xlink:href="#b"/><path stroke="#05DCAC" stroke-width=".2" d="M26.011 23.263h0a.59.59 0 0 0 0-.882l-2.314-2.076a.593.593 0 0 0-.993.44c0 .169.073.327.198.44l.97.87-.067.174h-3.111a.592.592 0 1 0 0 1.185h3.111l.067.174-.97.87a.587.587 0 0 0-.198.44c0 .327.266.592.595.592.15 0 .29-.054.399-.15l2.313-2.077z"/></g></g></g></svg>
